notebook/vault/Състезания/2/7/Resources/2026_1.svg

<svg xmlns="http://www.w3.org/2000/svg" xmlns:xlink="http://www.w3.org/1999/xlink" width="595.28" height="841.89" viewBox="0 0 595.28 841.89">
  <defs>
    <path id="a" d="M 1.953125 -1.265625 C 1.515625 -0.53125 1.09375 -0.375 0.609375 -0.34375 C 0.484375 -0.328125 0.390625 -0.328125 0.390625 -0.125 C 0.390625 -0.0625 0.4375 0 0.53125 0 C 0.828125 0 1.15625 -0.03125 1.46875 -0.03125 C 1.828125 -0.03125 2.21875 0 2.5625 0 C 2.625 0 2.765625 0 2.765625 -0.203125 C 2.765625 -0.328125 2.671875 -0.34375 2.59375 -0.34375 C 2.34375 -0.359375 2.078125 -0.453125 2.078125 -0.71875 C 2.078125 -0.859375 2.140625 -0.96875 2.234375 -1.125 L 3.0625 -2.53125 L 5.8125 -2.53125 C 5.84375 -2.296875 5.984375 -0.8125 5.984375 -0.703125 C 5.984375 -0.375 5.421875 -0.34375 5.203125 -0.34375 C 5.046875 -0.34375 4.9375 -0.34375 4.9375 -0.125 C 4.9375 0 5.078125 0 5.09375 0 C 5.546875 0 6.015625 -0.03125 6.46875 -0.03125 C 6.734375 -0.03125 7.421875 0 7.703125 0 C 7.765625 0 7.890625 0 7.890625 -0.21875 C 7.890625 -0.34375 7.78125 -0.34375 7.640625 -0.34375 C 6.96875 -0.34375 6.96875 -0.421875 6.9375 -0.734375 L 6.265625 -7.578125 C 6.25 -7.796875 6.25 -7.84375 6.0625 -7.84375 C 5.875 -7.84375 5.84375 -7.765625 5.765625 -7.65625 Z M 3.28125 -2.875 L 5.4375 -6.484375 L 5.78125 -2.875 Z M 3.28125 -2.875"/>
    <path id="b" d="M 1.75 -0.859375 C 1.640625 -0.421875 1.625 -0.34375 0.75 -0.34375 C 0.5625 -0.34375 0.453125 -0.34375 0.453125 -0.125 C 0.453125 0 0.5625 0 0.75 0 L 4.671875 0 C 6.390625 0 7.6875 -1.296875 7.6875 -2.359375 C 7.6875 -3.15625 7.046875 -3.796875 5.984375 -3.90625 C 7.125 -4.125 8.28125 -4.921875 8.28125 -5.96875 C 8.28125 -6.78125 7.5625 -7.484375 6.25 -7.484375 L 2.5625 -7.484375 C 2.359375 -7.484375 2.25 -7.484375 2.25 -7.265625 C 2.25 -7.140625 2.34375 -7.140625 2.546875 -7.140625 C 2.578125 -7.140625 2.78125 -7.140625 2.96875 -7.125 C 3.171875 -7.09375 3.265625 -7.09375 3.265625 -6.9375 C 3.265625 -6.90625 3.25 -6.875 3.21875 -6.734375 Z M 3.40625 -4.015625 L 4.078125 -6.71875 C 4.1875 -7.109375 4.203125 -7.140625 4.671875 -7.140625 L 6.09375 -7.140625 C 7.046875 -7.140625 7.28125 -6.5 7.28125 -6.015625 C 7.28125 -5.046875 6.34375 -4.015625 5 -4.015625 Z M 2.90625 -0.34375 C 2.765625 -0.34375 2.734375 -0.34375 2.671875 -0.34375 C 2.5625 -0.359375 2.53125 -0.375 2.53125 -0.453125 C 2.53125 -0.5 2.53125 -0.515625 2.578125 -0.71875 L 3.34375 -3.765625 L 5.40625 -3.765625 C 6.46875 -3.765625 6.671875 -2.953125 6.671875 -2.484375 C 6.671875 -1.40625 5.703125 -0.34375 4.40625 -0.34375 Z M 2.90625 -0.34375"/>
    <path id="c" d="M 8.328125 -7.609375 C 8.328125 -7.640625 8.296875 -7.71875 8.203125 -7.71875 C 8.171875 -7.71875 8.15625 -7.71875 8.046875 -7.59375 L 7.265625 -6.75 C 7.171875 -6.90625 6.671875 -7.71875 5.453125 -7.71875 C 3.015625 -7.71875 0.546875 -5.296875 0.546875 -2.765625 C 0.546875 -0.953125 1.84375 0.234375 3.515625 0.234375 C 4.46875 0.234375 5.296875 -0.203125 5.875 -0.703125 C 6.90625 -1.59375 7.09375 -2.59375 7.09375 -2.625 C 7.09375 -2.734375 6.984375 -2.734375 6.953125 -2.734375 C 6.890625 -2.734375 6.828125 -2.71875 6.8125 -2.625 C 6.71875 -2.3125 6.46875 -1.53125 5.703125 -0.890625 C 4.953125 -0.28125 4.265625 -0.09375 3.6875 -0.09375 C 2.703125 -0.09375 1.546875 -0.671875 1.546875 -2.375 C 1.546875 -3 1.78125 -4.78125 2.875 -6.0625 C 3.53125 -6.828125 4.5625 -7.375 5.546875 -7.375 C 6.65625 -7.375 7.3125 -6.53125 7.3125 -5.265625 C 7.3125 -4.828125 7.265625 -4.8125 7.265625 -4.703125 C 7.265625 -4.59375 7.390625 -4.59375 7.4375 -4.59375 C 7.578125 -4.59375 7.578125 -4.625 7.640625 -4.8125 Z M 8.328125 -7.609375"/>
    <path id="d" d="M 1.734375 -0.859375 C 1.625 -0.421875 1.609375 -0.34375 0.75 -0.34375 C 0.5625 -0.34375 0.4375 -0.34375 0.4375 -0.125 C 0.4375 0 0.53125 0 0.75 0 L 4.375 0 C 6.65625 0 8.8125 -2.3125 8.8125 -4.703125 C 8.8125 -6.25 7.875 -7.484375 6.234375 -7.484375 L 2.546875 -7.484375 C 2.34375 -7.484375 2.21875 -7.484375 2.21875 -7.265625 C 2.21875 -7.140625 2.328125 -7.140625 2.546875 -7.140625 C 2.6875 -7.140625 2.875 -7.125 3.015625 -7.125 C 3.1875 -7.09375 3.25 -7.0625 3.25 -6.9375 C 3.25 -6.90625 3.234375 -6.875 3.203125 -6.734375 Z M 4.109375 -6.71875 C 4.203125 -7.109375 4.234375 -7.140625 4.703125 -7.140625 L 5.875 -7.140625 C 6.9375 -7.140625 7.859375 -6.5625 7.859375 -5.109375 C 7.859375 -4.578125 7.640625 -2.78125 6.703125 -1.578125 C 6.390625 -1.171875 5.515625 -0.34375 4.171875 -0.34375 L 2.9375 -0.34375 C 2.78125 -0.34375 2.765625 -0.34375 2.6875 -0.34375 C 2.578125 -0.359375 2.546875 -0.375 2.546875 -0.453125 C 2.546875 -0.5 2.546875 -0.515625 2.609375 -0.71875 Z M 4.109375 -6.71875"/>
  </defs>
  <path fill="none" stroke="#000" stroke-linecap="round" stroke-linejoin="round" stroke-miterlimit="10" stroke-width="5" d="M 129.765447 110.927481 L 1150.614915 110.927481 L 1150.614915 1131.816058 L 129.765447 1131.816058 Z M 129.765447 110.927481" transform="matrix(.09988 0 0 -.09988 410.56 654.82)"/>
  <path fill="none" stroke="#000" stroke-linecap="round" stroke-linejoin="round" stroke-miterlimit="10" stroke-width="40" d="M196.92 178.12 196.92 178.12M1083.42 178.12 1083.42 178.12M1083.42 1064.63 1083.42 1064.63M196.92 1064.63 196.92 1064.63" transform="matrix(.09988 0 0 -.09988 410.56 654.82)"/>
  <use xlink:href="#a" x="413.07" y="653.46"/>
  <use xlink:href="#b" x="527.72" y="653.46"/>
  <use xlink:href="#c" x="527.72" y="539.53"/>
  <use xlink:href="#d" x="411.91" y="539.53"/>
</svg>

<svg xmlns="http://www.w3.org/2000/svg" xmlns:xlink="http://www.w3.org/1999/xlink" width="170" height="180" viewBox="0 0 170 180">
  <defs>
    <path id="a" d="M1.95-1.27c-.43.74-.86.9-1.34.93-.13.01-.22.01-.22.22q0 .1.14.12l.94-.03 1.1.03c.06 0 .2 0 .2-.2 0-.13-.1-.14-.18-.14-.25-.02-.51-.11-.51-.38q0-.2.15-.4l.83-1.41h2.75c.03.23.17 1.72.17 1.83 0 .32-.56.36-.78.36-.15 0-.26 0-.26.22 0 .12.14.12.15.12l1.38-.03L7.7 0c.07 0 .2 0 .2-.22 0-.12-.12-.12-.26-.12-.67 0-.67-.08-.7-.4l-.67-6.84c-.02-.22-.02-.26-.2-.26-.2 0-.23.07-.3.18Zm1.33-1.6 2.16-3.61.34 3.6Zm0 0"/>
    <path id="b" d="M1.75-.86c-.1.44-.12.52-1 .52-.19 0-.3 0-.3.22 0 .12.11.12.3.12h3.92C6.4 0 7.7-1.3 7.7-2.36c0-.8-.64-1.44-1.7-1.55 1.13-.21 2.3-1.01 2.3-2.06 0-.81-.73-1.51-2.04-1.51H2.56c-.2 0-.31 0-.31.21 0 .13.1.13.3.13l.42.01c.2.04.3.04.3.2l-.05.2Zm1.66-3.16.67-2.7c.1-.39.12-.42.6-.42h1.41c.96 0 1.2.64 1.2 1.12 0 .97-.95 2-2.29 2ZM2.9-.34h-.24q-.15-.01-.14-.11c0-.05 0-.07.05-.27l.76-3.05h2.07c1.06 0 1.26.82 1.26 1.29 0 1.07-.97 2.14-2.26 2.14Zm0 0"/>
    <path id="c" d="M8.33-7.6c0-.04-.03-.12-.13-.12-.03 0-.04 0-.15.13l-.78.84c-.1-.16-.6-.97-1.82-.97-2.43 0-4.9 2.42-4.9 4.95 0 1.82 1.3 3 2.97 3C4.47.23 5.3-.2 5.88-.7a3.6 3.6 0 0 0 1.21-1.92c0-.11-.1-.11-.14-.11q-.1-.02-.14.1c-.1.32-.34 1.1-1.1 1.74-.76.6-1.44.8-2.02.8-.99 0-2.14-.58-2.14-2.28 0-.63.23-2.41 1.33-3.7a3.7 3.7 0 0 1 2.67-1.3c1.1 0 1.76.84 1.76 2.1 0 .44-.04.46-.04.57s.12.1.17.1c.14 0 .14-.03.2-.21Zm0 0"/>
    <path id="d" d="M1.73-.86c-.1.44-.12.52-.98.52-.19 0-.31 0-.31.22 0 .12.1.12.31.12h3.63C6.65 0 8.8-2.31 8.8-4.7c0-1.55-.94-2.78-2.58-2.78H2.55c-.2 0-.33 0-.33.21 0 .13.1.13.33.13l.47.01c.17.04.23.07.23.2l-.05.2Zm2.38-5.86c.1-.39.12-.42.6-.42h1.17c1.06 0 1.98.58 1.98 2.03 0 .53-.22 2.33-1.16 3.53A3.3 3.3 0 0 1 4.17-.34H2.7q-.15-.01-.14-.11c0-.05 0-.07.06-.27Zm0 0"/>
  </defs>
  <path fill="none" stroke="#000" stroke-linecap="round" stroke-linejoin="round" stroke-miterlimit="10" stroke-width=".4994" d="M23.52 143.74h101.96V41.77H23.52Zm0 0"/>
  <path fill="none" stroke="#000" stroke-linecap="round" stroke-linejoin="round" stroke-miterlimit="10" stroke-width="40" d="M196.92 178.12 196.92 178.12M1083.42 178.12 1083.42 178.12M1083.42 1064.63 1083.42 1064.63M196.92 1064.63 196.92 1064.63" transform="matrix(.09988 0 0 -.09988 10.56 154.82)"/>
  <use xlink:href="#a" x="13.07" y="153.46"/>
  <use xlink:href="#b" x="127.72" y="153.46"/>
  <use xlink:href="#c" x="127.72" y="39.53"/>
  <use xlink:href="#d" x="11.91" y="39.53"/>
</svg>
